X: 41453
T: Two Nice Eyes
R: reel
M: 4/4
K: Amixolydian
|:A2ce aefe|gfed ceA^G|G2Bd gded|1 ecdB cAA2:|2 ecdB cA (3Ace||
|:ae(3cAe agef|gdBG edcA|ae(3cde agef|ecdB cAA2:|

